!!!OTL: 1113. Luegenlied.
!!!ARE: Europa, Mitteleuropa, Deutschland, Hessen, Kreis Wetzlar; Taunus
!!!SCT: E1113A
!!!TXL: @@DE
!!!YEM: Copyright 1995, estate of Helmut Schaffrath.
**kern	**text
*ICvox	*
*M2/4	*
*k[f#]	*
*G:	*
!LO:TX:a:t=Aus dem heſſ. Hinterlande, Taunus u. Kr. Wetʒlar. 	!
{8d	Die
=1	=1
8g	Do-
8g	-nau
8g	iſt
8a	ins
=2	=2
8b	Waſ-
8b	-ſer
8b}	gfalln,
{8b	der
=3	=3
8a	Rhein-
8b/	-ſtrom
8cc	iſt
8f#	ver-
=4	=4
4g	-brannt,
8r}	.
{8a	ja
=5	=5
8aL	ja
8g	ja
8f#	ja
8gJ	ja
=6	=6
8aL	ja
8f#	ja
8f#J}	ja,
{8a	ja
=7	=7
8aL	ja
8g	ja
8f#	ja
8gJ	ja
=8	=8
8aL	ja
8f#	ja
8f#J}	ja,
{8d	der
=9	=9
8g	Rhein-
8g	-ſtrom
8g	iſt
8b	ver-
=10	=10
4.dd}	-brannt,
{8cc	der
=11	=11
8b/	Rhein-
8b/	-ſtrom
8a	iſt
8a	ver-
=12	=12
4g	-brannt.
8r}	.
==	==
!!!AGN: Luegen - Lied, Maerchen
!!!ONB: ESAC (Essen Associative Code) Database: ERK3
!!!AMT: simple duple
!!!AIN: vox
!!!EED: Helmut Schaffrath
!!!EEV: 1.0
!!!GTL: Raethsel-, Wett- und Wunschlieder, nebst Luegenmaerchen.
!!!URL-scan: https://rosdok.uni-rostock.de/mcrviewer/recordIdentifier/rosdok_ppn745177999/iview2/phys_0056.iview2?x=74.16007357963736&y=39.309379797807196&scale=0.701185927818147&rotation=0&layout=singlePageLayout
!!!ENC: Anna Maria Matuszewska
!!!EEV: 2024/12/23
*-	*-
